(/Applications/pcbgcode.repo/pcb-gcode.ulp)
(Copyright 2005 - 2012 by John Johnson)
(See readme.txt for licensing terms.)
(This file generated from the board:)
(.../eurorack/808_CB/eagle/808_CB.brd)
(Current profile is .../pcbgcode.repo/profiles/mach.pp  )
(This file generated 4/19/16 9:49 PM)
(Settings from pcb-machine.h)
(spindle on time = 0.0000)
(spindle speed = 15000.0000)
(milling depth = -0.0700)
(tool change at 0.0000  0.0000  1.5000  )
(feed rate xy = F10    )
(feed rate z  = F5     )
(Z Axis Settings)
(  High     Up        Down     Drill)
(0.2500  	0.0500  	-0.0035 	-0.0730 )
(Settings from pcb-defaults.h)
(isolate min = 0.0050)
(isolate max = 0.0200)
(isolate step = 0.0015)
(Generated bottom outlines, bottom drill, )
(Unit of measure: inch)
(Inch Mode)
G20
(Absolute Coordinates)
G90
S15000
G00 Z0.2500  
G00 X0.0000  Y0.0000  
M03
G04 P0.000000
G00 Z0.0500  
G00 X0.0300  Y-0.0200 
G01 Z-0.0700 F5     
G01 X2.0400  Y-0.0200 F10    
G01 X2.0800  Y0.0400  
G01 X2.0800  Y3.1200  
G01 X2.0400  Y3.1800  
G01 X0.0200  Y3.1800  
G01 X-0.0300 Y3.1200  
G01 X-0.0300 Y0.0400  
G01 X0.0300  Y-0.0200 
G00 Z0.0500  
G00 X0.2300  Y0.1200  
G01 Z-0.0700 F5     
G01 X0.2550  Y0.1200  F10    
G01 X0.2550  Y0.1450  
G01 X0.2300  Y0.1450  
G01 X0.2300  Y0.1200  
G00 Z0.0500  
G00 X1.9200  Y0.1200  
G01 Z-0.0700 F5     
G01 X1.9450  Y0.1200  F10    
G01 X1.9450  Y0.1450  
G01 X1.9200  Y0.1450  
G01 X1.9200  Y0.1200  
G00 Z0.0500  
G00 X1.9200  Y3.0400  
G01 Z-0.0700 F5     
G01 X1.9450  Y3.0400  F10    
G01 X1.9450  Y3.0650  
G01 X1.9200  Y3.0650  
G01 X1.9200  Y3.0400  
G00 Z0.0500  
G00 X0.1350  Y3.0300  
G01 Z-0.0700 F5     
G01 X0.1350  Y3.0550  F10    
G01 X0.1100  Y3.0550  
G01 X0.1100  Y3.0300  
G01 X0.1350  Y3.0300  
G00 Z0.2500  
M05
M02
