(/Applications/pcbgcode.repo/pcb-gcode.ulp)
(Copyright 2005 - 2012 by John Johnson)
(See readme.txt for licensing terms.)
(This file generated from the board:)
(.../eurorack/808_CB/eagle/808_CB.brd)
(Current profile is .../pcbgcode.repo/profiles/mach.pp  )
(This file generated 4/19/16 9:49 PM)
(Settings from pcb-machine.h)
(spindle on time = 0.0000)
(spindle speed = 20000.0000)
(tool change at 0.0000  0.0000  1.5000  )
(feed rate xy = F0     )
(feed rate z  = F20    )
(Z Axis Settings)
(  High     Up        Down     Drill)
(0.2500  	0.0500  	-0.0035 	-0.0730 )
(Settings from pcb-defaults.h)
(isolate min = 0.0050)
(isolate max = 0.0200)
(isolate step = 0.0015)
(Generated bottom outlines, bottom drill, )
(Unit of measure: inch)
( Tool|       Size       |  Min Sub |  Max Sub |   Count )
( T01 | 0.800mm 0.0315in | 0.0000in | 0.0000in |       0 )
( T02 | 0.813mm 0.0320in | 0.0000in | 0.0000in |       0 )
( T03 | 0.900mm 0.0354in | 0.0000in | 0.0000in |       0 )
( T04 | 1.000mm 0.0394in | 0.0000in | 0.0000in |       0 )
( T05 | 1.016mm 0.0400in | 0.0000in | 0.0000in |       0 )
( T06 | 1.118mm 0.0440in | 0.0000in | 0.0000in |       0 )
( T07 | 1.200mm 0.0472in | 0.0000in | 0.0000in |       0 )
( T08 | 1.300mm 0.0512in | 0.0000in | 0.0000in |       0 )
(Inch Mode)
G20
(Absolute Coordinates)
G90
S20000
G00 Z0.2500  
G00 X0.0000  Y0.0000  
M03
G04 P0.000000
M05
G00 Z1.5000  
M06 T01  ; 0.0315  
G01 Z0.0000  F20    
M06 
G00 Z0.0500  
M03
G04 P0.000000
G82 X-0.4500 Y0.9811  Z-0.0730 F20    R0.0500  P0.010000
G82 X-0.4500 Y1.1189  
G82 X-0.6000 Y1.1189  
G82 X-0.6000 Y0.9811  
G82 X-0.7500 Y0.9811  
G82 X-0.7500 Y1.1189  
G82 X-0.8611 Y1.1900  
G82 X-0.9989 Y1.1900  
G82 X-1.1000 Y1.6500  
G82 X-0.7300 Y1.6500  
G82 X-0.8750 Y2.4213  
G82 X-0.8750 Y2.5787  
G82 X-1.3000 Y2.5787  
G82 X-1.3000 Y2.4213  
G82 X-1.0839 Y0.3900  
G82 X-0.9461 Y0.3900  
M05
G00 Z1.5000  
G00 X0.0000  Y0.0000  
M06 T02  ; 0.0320  
G01 Z0.0000  F20    
M06 
G00 Z0.0500  
M03
G04 P0.000000
G82 X-0.4400 Y0.7000  Z-0.0730 F20    R0.0500  P0.010000
G82 X-0.6400 Y0.7000  
G82 X-0.6400 Y0.8500  
G82 X-0.8400 Y0.8500  
G82 X-0.8300 Y0.7200  
G82 X-0.8300 Y0.6200  
G82 X-1.1000 Y0.6000  
G82 X-1.1000 Y0.5000  
G82 X-1.1000 Y0.7000  
G82 X-1.1000 Y0.8000  
G82 X-1.4000 Y0.8000  
G82 X-1.4000 Y0.7000  
G82 X-1.4000 Y0.6000  
G82 X-1.4000 Y0.5000  
G82 X-1.3500 Y0.2700  
G82 X-1.1500 Y0.2700  
G82 X-0.7150 Y0.3000  
G82 X-0.7150 Y0.1000  
G82 X-1.1100 Y1.1800  
G82 X-1.0800 Y1.3700  
G82 X-1.2000 Y1.3900  
G82 X-1.2000 Y1.5900  
G82 X-1.0900 Y1.7700  
G82 X-1.1700 Y1.8700  
G82 X-1.2200 Y1.9450  
G82 X-1.2700 Y1.8700  
G82 X-1.1600 Y2.0400  
G82 X-1.1600 Y2.1400  
G82 X-1.3100 Y2.0900  
G82 X-1.3100 Y2.2900  
G82 X-1.1600 Y2.3500  
G82 X-0.9750 Y2.3400  
G82 X-0.8700 Y2.1700  
G82 X-1.0000 Y2.0800  
G82 X-0.9200 Y1.9800  
G82 X-1.0000 Y1.8800  
G82 X-0.8900 Y1.7700  
G82 X-0.7200 Y1.9800  
G82 X-0.5500 Y2.0000  
G82 X-0.5500 Y1.9050  
G82 X-0.6000 Y1.8300  
G82 X-0.5000 Y1.8300  
G82 X-0.4550 Y1.7050  
G82 X-0.4550 Y1.5050  
G82 X-0.4500 Y1.2500  
G82 X-0.6500 Y1.2500  
G82 X-0.7700 Y1.2600  
G82 X-0.8800 Y1.3700  
G82 X-0.7700 Y1.4600  
G82 X-1.3100 Y1.1800  
G82 X-1.5800 Y1.5600  
G82 X-1.5900 Y1.7000  
G82 X-1.7000 Y1.7500  
G82 X-1.7500 Y1.8250  
G82 X-1.8000 Y1.7500  
G82 X-1.7800 Y1.5600  
G82 X-1.7100 Y1.9400  
G82 X-1.5900 Y1.9000  
G82 X-1.5900 Y2.0200  
G82 X-1.6900 Y2.1400  
G82 X-1.7400 Y2.0650  
G82 X-1.7900 Y2.1400  
G82 X-1.9000 Y2.0600  
G82 X-1.9100 Y1.9400  
G82 X-1.9000 Y2.2600  
G82 X-1.7700 Y2.3700  
G82 X-1.8200 Y2.5300  
G82 X-1.8200 Y2.6300  
G82 X-1.6300 Y2.6300  
G82 X-1.6300 Y2.5300  
G82 X-1.5700 Y2.3700  
G82 X-1.4400 Y2.4000  
G82 X-1.4400 Y2.6000  
G82 X-1.2500 Y2.7500  
G82 X-1.1500 Y2.7500  
G82 X-1.0500 Y2.7500  
G82 X-0.9500 Y2.7500  
G82 X-0.8500 Y2.7500  
G82 X-0.7500 Y2.7500  
G82 X-0.6500 Y2.7500  
G82 X-0.6400 Y2.6300  
G82 X-0.7500 Y2.5400  
G82 X-0.7500 Y2.3400  
G82 X-0.6700 Y2.1700  
G82 X-0.5500 Y2.1000  
G82 X-0.5250 Y2.2300  
G82 X-0.5250 Y2.5300  
G82 X-0.4400 Y2.6300  
G82 X-0.6500 Y3.0500  
G82 X-0.7500 Y3.0500  
G82 X-0.8500 Y3.0500  
G82 X-0.9500 Y3.0500  
G82 X-1.0500 Y3.0500  
G82 X-1.1500 Y3.0500  
G82 X-1.2500 Y3.0500  
G82 X-1.1600 Y2.5500  
G82 X-0.9750 Y2.5400  
G82 X-1.5900 Y2.2200  
M05
G00 Z1.5000  
G00 X0.0000  Y0.0000  
M06 T03  ; 0.0354  
G01 Z0.0000  F20    
M06 
G00 Z0.0500  
M03
G04 P0.000000
G82 X-0.6000 Y1.4100  Z-0.0730 F20    R0.0500  P0.010000
G82 X-0.6000 Y1.7100  
G82 X-1.3200 Y1.7500  
G82 X-1.4200 Y1.5700  
G82 X-1.3200 Y1.4500  
G82 X-1.4200 Y1.2700  
M05
G00 Z1.5000  
G00 X0.0000  Y0.0000  
M06 T04  ; 0.0394  
G01 Z0.0000  F20    
M06 
G00 Z0.0500  
M03
G04 P0.000000
G82 X-0.9000 Y0.1700  Z-0.0730 F20    R0.0500  P0.010000
G82 X-0.9000 Y0.2700  
M05
G00 Z1.5000  
G00 X0.0000  Y0.0000  
M06 T05  ; 0.0400  
G01 Z0.0000  F20    
M06 
G00 Z0.0500  
M03
G04 P0.000000
G82 X-1.7200 Y0.5750  Z-0.0730 F20    R0.0500  P0.010000
G82 X-1.7200 Y0.6750  
G82 X-1.7200 Y0.7750  
G82 X-1.7200 Y0.8750  
G82 X-1.7200 Y0.9750  
G82 X-1.7200 Y1.0750  
G82 X-1.7200 Y1.1750  
G82 X-1.7200 Y1.2750  
G82 X-1.8200 Y1.2750  
G82 X-1.8200 Y1.1750  
G82 X-1.8200 Y1.0750  
G82 X-1.8200 Y0.9750  
G82 X-1.8200 Y0.8750  
G82 X-1.8200 Y0.7750  
G82 X-1.8200 Y0.6750  
G82 X-1.8200 Y0.5750  
M05
G00 Z1.5000  
G00 X0.0000  Y0.0000  
M06 T06  ; 0.0440  
G01 Z0.0000  F20    
M06 
G00 Z0.0500  
M03
G04 P0.000000
G82 X-1.4300 Y1.1500  Z-0.0730 F20    R0.0500  P0.010000
G82 X-1.8900 Y1.6500  
M05
G00 Z1.5000  
G00 X0.0000  Y0.0000  
M06 T07  ; 0.0472  
G01 Z0.0000  F20    
M06 
G00 Z0.0500  
M03
G04 P0.000000
G82 X-0.1500 Y0.7531  Z-0.0730 F20    R0.0500  P0.010000
G82 X-0.1500 Y0.9500  
G82 X-0.1500 Y1.1469  
G82 X-0.1500 Y1.6031  
G82 X-0.1500 Y1.8000  
G82 X-0.1500 Y1.9969  
G82 X-0.1500 Y2.3531  
G82 X-0.1500 Y2.5500  
G82 X-0.1500 Y2.7469  
M05
G00 Z1.5000  
G00 X0.0000  Y0.0000  
M06 T08  ; 0.0512  
G01 Z0.0000  F20    
M06 
G00 Z0.0500  
M03
G04 P0.000000
G82 X-0.0980 Y0.3130  Z-0.0730 F20    R0.0500  P0.010000
G82 X-0.0984 Y0.3469  
G82 X-0.0980 Y0.3800  
G82 X-0.4980 Y0.1420  
G82 X-0.5315 Y0.1421  
G82 X-0.5650 Y0.1420  
G82 X-0.6180 Y0.3140  
G82 X-0.6181 Y0.3469  
G82 X-0.6180 Y0.3800  
T01 
G00 Z0.2500  
M05
M02
